X: 6
T: Nine Points Of Roguery, The
Z: TJ
S: https://thesession.org/tunes/429#setting53550
R: reel
M: 4/4
L: 1/8
K: Dmaj
|:D2FA GFED | AdAF ABAF | D2FA GFED |=cEE/E/E cEGE |
D2FA GFED | AdAF ABAF | D2FD EABc |1 dDD/D/D D2FE :|2 dDD/D/D D3B||
|:=c2Ac B2GB | A2BA AGFE | D2FA GFED| =cEE/E/E cEGE |
=cBAc BAGB | ABde fdAF | D2FD EABc|1 dDD/D/D dDD/D/D :|2 dDD/D/D D2 (3ABc||
|: d2fd gefe | defg abaf | d2fd gg/g/ga | bee/e/e bege |
d2fd gefe | defg abaf | cdef gbag |1 faeg fdec :|2 ff/f/eg fddB ||
|:=cc/c/cA B2GB | A2BA AGFE | D2E/F/A GFED| =cEE/E/E cEGE |
=cBAc BAGB | ABde fdAF | D2FD EABc|1 dDD/D/D dDD/D/D :|2 dfec d4||

%-------------------- TUNE SEPARATOR --------------------%

